X:1
T: When you go hone
C:
R:Jig
Q:180
K:D
M:6/8
L:1/16
G2|:F2D2E2 F4d2|c2A2A2 B2A2G2|F2D2E2 F4d2|c2A2F2 GBA2G2|
F2D2E2 F4d2|c2A2B2 c2d2e2|f2e2f2 dfe2d2|1c2A2F2 G4G2:|2c2A2F2 G4B2|
|:=c2A2A2 f2e2d2|=c2A2G2 A4B2|=c2A2A2 f2e2d2|c2A2F2 G4B2|
=c2A2A2 f2e2d2|c2A2B2 c2d2e2|f2e2f2 dfe2d2|1c2A2F2 G4B2:|2c2A2F2 G4||
